X:33
T:Kost'er hoed
C:Ti Jaz
S:Ti Jaz / Trad 1, 31
M:C
L:1/8
K:C
e>d cA Bc de|fe dc g4|e>d cA Bc de|fe dB c4 :|
|:cc a2 ag ^fd|e^f (3ggg g=f ec|de fe dc (3eee|dc Bd c4:|
